Bloom-Colors/16x16/places/folder-android.svg

<svg width="16" height="16" version="1.1" xmlns="http://www.w3.org/2000/svg">
<defs>
<style id="current-color-scheme" type="text/css">.ColorScheme-Text { color:#444444; } .ColorScheme-Highlight { color:#4285f4; }</style>
</defs>
<path class="ColorScheme-Text" d="m1.793 2.9902c-0.681-1e-4 -1.0508 0.7963-0.6114 1.3164l1.4356 1.7559c-1.4492 1.3027-2.6172 3.1213-2.6172 5.1675 0 0.77 0.77734 0.77 0.77734 0.77h14.426s0.797 0 0.797-0.809c0-2.0306-1.174-3.8358-2.615-5.1305l1.433-1.7539c0.444-0.5285 0.056-1.3336-0.634-1.3144-0.236 0.0064-0.457 0.1165-0.604 0.3008l-1.492 1.8261c-1.198-0.7067-2.5941-1.1191-4.088-1.1191-1.4946 0-2.8892 0.4118-4.0879 1.1191l-1.4922-1.8261c-0.1518-0.1913-0.3827-0.3028-0.6269-0.3028zm2.207 5.0098c0.5523 0 1 0.4477 1 1s-0.4477 1-1 1-1-0.4477-1-1 0.4477-1 1-1zm8 0c0.552 0 1 0.4477 1 1s-0.448 1-1 1-1-0.4477-1-1 0.448-1 1-1z" fill="#808080"/>
</svg>

<svg xmlns="http://www.w3.org/2000/svg" width="16" height="16" version="1.1">
 <defs>
  <style id="current-color-scheme" type="text/css">
   .ColorScheme-Text { color:#666666; } .ColorScheme-Highlight { color:#4285f4; }
  </style>
 </defs>
 <path style="fill:currentColor" class="ColorScheme-Text" d="M 1.793,2.9902 C 1.112,2.9901 0.7422,3.7865 1.1816,4.3066 L 2.6172,6.0625 C 1.168,7.3652 0,9.1838 0,11.23 0,12 0.77734,12 0.77734,12 H 15.203 C 15.203,12 16,12 16,11.191 16,9.1604 14.826,7.3552 13.385,6.0605 L 14.818,4.3066 C 15.262,3.7781 14.874,2.973 14.184,2.9922 13.948,2.9986 13.727,3.1087 13.58,3.293 L 12.088,5.1191 C 10.89,4.4124 9.4939,4 8,4 6.5054,4 5.1108,4.4118 3.9121,5.1191 L 2.4199,3.293 C 2.2681,3.1017 2.0372,2.9902 1.793,2.9902 Z M 4,8 C 4.5523,8 5,8.4477 5,9 5,9.5523 4.5523,10 4,10 3.4477,10 3,9.5523 3,9 3,8.4477 3.4477,8 4,8 Z M 12,8 C 12.552,8 13,8.4477 13,9 13,9.5523 12.552,10 12,10 11.448,10 11,9.5523 11,9 11,8.4477 11.448,8 12,8 Z"/>
</svg>
